src/assets/icons/shapes,simple,outline-octagon_alt.svg

<svg width="48" height="48" viewBox="0 0 48 48" fill="none" xmlns="http://www.w3.org/2000/svg">
<rect opacity="0.2" x="5" y="5" width="38" height="38" rx="4" fill="black"/>
<path d="M26.7426 35.9919C25.1364 35.9883 23.0792 35.9853 21.279 35.988C20.5798 35.9891 20.107 35.9892 19.7382 35.9637C19.3804 35.939 19.1908 35.8934 19.0534 35.8361C18.9208 35.7808 18.75 35.6749 18.463 35.4211C18.1705 35.1623 17.8166 34.8047 17.2987 34.2802C16.1098 33.0763 14.6765 31.6705 13.5589 30.5833C12.5763 29.6275 12.3053 29.3378 12.1663 29.0079C12.0274 28.6781 12.0094 28.2817 12.0118 26.9106C12.0151 25.0672 12.012 22.921 12.0081 21.2582C12.0065 20.5675 12.006 20.1018 12.0312 19.7379C12.0556 19.3858 12.1008 19.1974 12.1586 19.0586C12.2142 18.9252 12.3198 18.7548 12.5718 18.4698C12.829 18.1788 13.1844 17.8273 13.7061 17.3123C14.9131 16.1207 16.3254 14.6808 17.4167 13.5589C18.3725 12.5763 18.6622 12.3053 18.9921 12.1663C19.3219 12.0274 19.7183 12.0094 21.0894 12.0118C22.9328 12.0151 25.079 12.012 26.7419 12.0081C27.4325 12.0065 27.8982 12.006 28.2621 12.0312C28.6142 12.0556 28.8026 12.1008 28.9414 12.1586C29.0748 12.2142 29.2452 12.3198 29.5302 12.5718C29.8212 12.829 30.1727 13.1844 30.6877 13.7061C31.8793 14.9131 33.3192 16.3254 34.4411 17.4167C35.4237 18.3725 35.6947 18.6622 35.8337 18.9921C35.9726 19.3219 35.9906 19.7183 35.9882 21.0894C35.9848 23.0035 35.9883 25.2441 35.9923 26.9311C35.9956 28.283 35.9779 28.6722 35.8388 29.0027C35.6997 29.3331 35.4312 29.6203 34.455 30.5698C33.331 31.6631 31.884 33.0822 30.6872 34.2945C30.1724 34.816 29.821 35.1712 29.5301 35.4283C29.2453 35.6802 29.0749 35.7858 28.9415 35.8414C28.8026 35.8992 28.6143 35.9444 28.2623 35.9688C27.8985 35.994 27.433 35.9935 26.7426 35.9919Z" stroke="black" stroke-width="2"/>
</svg>

<svg xmlns="http://www.w3.org/2000/svg" width="48" height="48" fill="none" viewBox="0 0 48 48">
  <rect width="38" height="38" x="5" y="5" fill="#000" opacity=".2" rx="4"/>
  <path stroke="#000" stroke-width="2" d="M26.743 35.992a1544.35 1544.35 0 00-5.464-.004c-.7.001-1.172.001-1.54-.024-.359-.025-.548-.07-.686-.128-.132-.055-.303-.161-.59-.415-.293-.259-.646-.616-1.164-1.14a280.344 280.344 0 00-3.74-3.698c-.983-.955-1.254-1.245-1.393-1.575-.139-.33-.157-.726-.154-2.097.003-1.844 0-3.99-.004-5.653-.001-.69-.002-1.156.023-1.52.025-.352.07-.54.128-.68.055-.133.16-.303.413-.588.257-.291.612-.643 1.134-1.158a278.938 278.938 0 003.71-3.753c.956-.983 1.246-1.254 1.576-1.393.33-.139.726-.157 2.097-.154 1.844.003 3.99 0 5.653-.004.69-.001 1.156-.002 1.52.023.352.025.54.07.68.128.133.055.303.16.588.413.291.257.643.612 1.158 1.134a278.938 278.938 0 003.753 3.71c.983.956 1.254 1.246 1.393 1.576.139.33.157.726.154 2.097-.003 1.915 0 4.155.004 5.842.004 1.352-.014 1.741-.153 2.072-.14.33-.408.617-1.384 1.567a279.639 279.639 0 00-3.768 3.724c-.515.522-.866.877-1.157 1.134-.285.252-.455.358-.588.413-.14.058-.328.103-.68.128-.364.025-.829.024-1.52.023z"/>
</svg>
